X:011
T:Andy Dejarlis Jig
B:Jerry Holland's Collection
M:6/8
L:1/8
K:E
z|EGB EGB|EGB c2 B|EBG EBG|=DFA B2 A|EGB EGB|
EGB c2 a|g2 f Bcd|e3 e2::a|gbg efg|b2 a c3|
f2 g f2 e|dcB c2 B|gbg efg|b2 a c2 g|g2 f Bcd|e3 e2:|
<end>
<start>
